fs/trophy_off_32_regular.svg

<svg viewBox="0 0 32 32" fill="none" xmlns="http://www.w3.org/2000/svg" height="1em" width="1em">
  <path d="M4.5362 5.95066L2.2929 3.70742C1.90237 3.3169 1.90237 2.68374 2.29288 2.29321C2.6834 1.90268 3.31657 1.90267 3.7071 2.29319L29.7074 28.2929C30.0979 28.6834 30.0979 29.3166 29.7074 29.7071C29.3169 30.0976 28.6837 30.0976 28.2932 29.7071L19.6867 21.1009C18.864 21.5291 17.9576 21.8185 16.9984 21.9381V24H20.4984C22.4313 24 23.9984 25.567 23.9984 27.5V28.5C23.9984 29.3284 23.3268 30 22.4984 30H9.49835C8.66992 30 7.99835 29.3284 7.99835 28.5V27.5C7.99835 25.567 9.56535 24 11.4984 24H14.9984V21.9381C11.7177 21.529 9.05393 19.1335 8.24864 15.9932C5.8795 15.8636 3.99835 13.9015 3.99835 11.5V7.5C3.99835 6.91483 4.1994 6.37661 4.5362 5.95066ZM18.1778 19.5919L9.99835 11.4127V14C9.99835 17.3137 12.6846 20 15.9984 20C16.7672 20 17.5022 19.8554 18.1778 19.5919ZM7.99835 9.41274L6.00484 7.41927C6.00057 7.44555 5.99835 7.47251 5.99835 7.5V11.5C5.99835 12.7095 6.85723 13.7184 7.99835 13.95V9.41274ZM21.9984 14C21.9984 15.2643 21.6073 16.4373 20.9395 17.4046L22.3714 18.8364C23.0058 18.0018 23.4799 17.0388 23.7481 15.9932C26.1172 15.8636 27.9984 13.9015 27.9984 11.5V7.5C27.9984 6.11929 26.8791 5 25.4984 5H23.9984C23.9984 3.34315 22.6552 2 20.9984 2H10.9984C9.5103 2 8.27529 3.08341 8.03909 4.50445L9.99835 6.46367V5C9.99835 4.44772 10.4461 4 10.9984 4H20.9984C21.5506 4 21.9984 4.44772 21.9984 5V14ZM23.9984 7H25.4984C25.7745 7 25.9984 7.22386 25.9984 7.5V11.5C25.9984 12.7095 25.1395 13.7184 23.9984 13.95V7ZM9.99835 27.5V28H21.9984V27.5C21.9984 26.6716 21.3268 26 20.4984 26H11.4984C10.6699 26 9.99835 26.6716 9.99835 27.5Z" fill="#212121"/>
</svg>

<svg viewBox="0 0 32 32" fill="none" xmlns="http://www.w3.org/2000/svg" height="1em" width="1em">
  <path d="M4.536 5.95 2.293 3.708a1 1 0 0 1 1.414-1.414l26 26a1 1 0 0 1-1.414 1.414l-8.606-8.606a7.945 7.945 0 0 1-2.689.837V24h3.5a3.5 3.5 0 0 1 3.5 3.5v1a1.5 1.5 0 0 1-1.5 1.5h-13a1.5 1.5 0 0 1-1.5-1.5v-1a3.5 3.5 0 0 1 3.5-3.5h3.5v-2.062a8.008 8.008 0 0 1-6.75-5.945 4.5 4.5 0 0 1-4.25-4.493v-4c0-.585.201-1.123.538-1.55Zm13.642 13.642-8.18-8.18V14a6 6 0 0 0 8.18 5.592ZM7.998 9.412 6.005 7.42a.503.503 0 0 0-.007.081v4a2.5 2.5 0 0 0 2 2.45V9.413Zm14 4.588a5.972 5.972 0 0 1-1.059 3.405l1.432 1.431a7.97 7.97 0 0 0 1.377-2.843 4.5 4.5 0 0 0 4.25-4.493v-4a2.5 2.5 0 0 0-2.5-2.5h-1.5a3 3 0 0 0-3-3h-10A3 3 0 0 0 8.04 4.504L10 6.464V5a1 1 0 0 1 1-1h10a1 1 0 0 1 1 1v9Zm2-7h1.5a.5.5 0 0 1 .5.5v4a2.5 2.5 0 0 1-2 2.45V7Zm-14 20.5v.5h12v-.5a1.5 1.5 0 0 0-1.5-1.5h-9a1.5 1.5 0 0 0-1.5 1.5Z" fill="#212121"/>
</svg>
